X: 1
T: Rochdale Coconut Dance
M: 4/4
L: 1/8
R: reel
Z: 2009 John Chambers <jc:trillian.mit.edu>
F: http://www.thesession.org/tunes/display/7715
N: The parts are sometimes played in the other order
K: Gmaj
|: "G"G2BB G2B2 | "D7"AGFG ABcA | "G"G2BB     G2B2 | "D7"AGFE D2D2 \
|  "G"G2BB G2B2 | "D7"AGFG ABcA | "G"BdcB "D7"AcBA |  "G"G2B2 G4 :|
|: "Em"EFGF E2B2 | EFGF E2B2 | "Am"c2Ac "Em"B2G2 | "D" AGF2 "Em"E2"D"D2 \
|  "Em"EFGF E2B2 | EFGF E2B2 | "Am"c2Ac "Em"B2G2 | "D7"AGF2  "G"G4 :|
